svgs/sharp-regular/box.svg

<svg xmlns="http://www.w3.org/2000/svg" viewBox="0 0 448 512"><!--! Font Awesome Pro 6.4.0 by @fontawesome - https://fontawesome.com License - https://fontawesome.com/license (Commercial License) Copyright 2023 Fonticons, Inc. --><path d="M59.6 160L95.2 80H200v80H59.6zM248 160V80H352.8l35.6 80H248zm152 48V432H48V208H400zM384 32H64L0 176V432v48H48 400h48V432 176L384 32z"/></svg>

<svg xmlns="http://www.w3.org/2000/svg" viewBox="0 0 448 512"><!--! Font Awesome Pro 6.6.0 by @fontawesome - https://fontawesome.com License - https://fontawesome.com/license (Commercial License) Copyright 2024 Fonticons, Inc. --><path d="M59.6 160L95.2 80 200 80l0 80L59.6 160zM248 160l0-80 104.8 0 35.6 80L248 160zm152 48l0 224L48 432l0-224 352 0zM384 32L64 32 0 176 0 432l0 48 48 0 352 0 48 0 0-48 0-256L384 32z"/></svg>
